X:2
T:Bye Bye Blackbird
C:Ray Henderson
L:1/4
M:C
I:linebreak $
K:G
"G" B B"G6" B3/2 B/ |"Am" c B"Em" B2 |"Dbø" B A"Co" A2 |"Bm" A G"Em" G2 |$"Em" G4 |
"Bbo" A4 |"Am" G4 |"D7" F"C" z"Bm" z"Bb7" z |$"Am" c c"AmM" c3/2 c/ |"Am" d c"F#ø" c2 |
"F7" c B"E7" B2 |"Eb7" B A"D7" A2 |$"Am" A4 |"D7" B4 |"Bm" A2"Em" G2 |"Am" z2"D7" z2 ||$
"Dm" G d"G7" d d |"Dm" d c"G7" B A |"Bø" A4 |"Bb7" ^G4 |$"Am" E c"AmM" c c |"Am" c B"Bm" A G |
"Cm" G4 |"D7" F4 ||$"G" B B"G6" B B |"Am" c B"Em" B2 |"Dbø" B A"Co" A2 |
"Bø" A ^G"Bb7" ^G2 |$"Am" A2"AmM" c2 |"Am" c2"Ab7" F2 |"G6" G4 | z4 |]

